X:1
T: Pine Buds in October
C:Bruce Shawyer
R:Strathspey
Q:128
K:D
M:4/4
L:1/16
|:A4|f2e2 d4 f2g2 f2e2|d2c2 B8 B4|B4 B4 B4 c2d2|e2c2 A8 A4|
f2e2 d4 f2g2 f2e2|d2c2 B8 B4|B8 B4 G2B2|A12 A4|
A4 d4 d4 d2d2|B2A2 G8 G4|A8 A2B2 A2G2|F2E2 D8D4|
d8 d4 e2f2|d2c2 B8 B4|c2B2 A8 A4|A4 d8:|
